src/Pure/16/symbolic/apps/org.gnome.Settings-mouse-symbolic.svg

<svg width="16px" height="16px" version="1.1" viewBox="0 0 16 16" xmlns="http://www.w3.org/2000/svg">
 <path d="m6 0c-2.216 0-4 1.784-4 4v8c0 2.216 1.784 4 4 4h4c2.216 0 4-1.784 4-4v-8c0-2.216-1.784-4-4-4h-4zm0 1h4c1.662 0 3 1.338 3 3v8c0 1.662-1.338 3-3 3h-4c-1.662 0-3-1.338-3-3v-8c0-1.662 1.338-3 3-3z" fill="#363636" stop-color="#000000" stroke-linecap="round" stroke-linejoin="round" stroke-width="2"/>
 <rect x="7" y="3" width="2" height="4" rx="1" ry="1" fill="#363636" stop-color="#000000" stroke-linecap="round" stroke-linejoin="round" stroke-width="2"/>
</svg>

<?xml version="1.0" encoding="UTF-8" standalone="no"?>
<svg
   width="16px"
   height="16px"
   version="1.1"
   viewBox="0 0 16 16"
   id="svg1"
   sodipodi:docname="org.gnome.Settings-mouse-symbolic.svg"
   inkscape:version="1.4.2 (ebf0e940d0, 2025-05-08)"
   xmlns:inkscape="http://www.inkscape.org/namespaces/inkscape"
   xmlns:sodipodi="http://sodipodi.sourceforge.net/DTD/sodipodi-0.dtd"
   xmlns="http://www.w3.org/2000/svg"
   xmlns:svg="http://www.w3.org/2000/svg">
  <defs
     id="defs1">
     <style
        id="current-color-scheme"
        type="text/css">
        .ColorScheme-Text { color:#363636; }
     </style>
  </defs>
  <sodipodi:namedview
     id="namedview1"
     pagecolor="#ffffff"
     bordercolor="#000000"
     borderopacity="0.25"
     inkscape:showpageshadow="2"
     inkscape:pageopacity="0.0"
     inkscape:pagecheckerboard="0"
     inkscape:deskcolor="#d1d1d1"
     inkscape:zoom="49.75"
     inkscape:cx="7.9899497"
     inkscape:cy="8"
     inkscape:window-width="1920"
     inkscape:window-height="1011"
     inkscape:window-x="0"
     inkscape:window-y="0"
     inkscape:window-maximized="1"
     inkscape:current-layer="svg1" />
  <path
     id="path1"
     style="fill:currentColor"
     class="ColorScheme-Text"
     d="M 6 0 C 3.784 0 2 1.784 2 4 L 2 12 C 2 14.216 3.784 16 6 16 L 10 16 C 12.216 16 14 14.216 14 12 L 14 4 C 14 1.784 12.216 0 10 0 L 6 0 z M 6 1 L 10 1 C 11.662 1 13 2.338 13 4 L 13 12 C 13 13.662 11.662 15 10 15 L 6 15 C 4.338 15 3 13.662 3 12 L 3 4 C 3 2.338 4.338 1 6 1 z M 8 3 C 7.446 3 7 3.446 7 4 L 7 6 C 7 6.554 7.446 7 8 7 C 8.554 7 9 6.554 9 6 L 9 4 C 9 3.446 8.554 3 8 3 z " />
</svg>
